assets/logos/engine-4.svg

<svg width="25" height="25" viewBox="0 0 25 25" fill="none" xmlns="http://www.w3.org/2000/svg">
<path d="M5.98786 11.0238C7.85177 9.24016 10.0389 8.35051 12.5797 8.4442C14.2803 8.50691 15.8618 9.00414 17.3023 10.0706C16.8014 10.9357 16.3043 11.7941 15.8048 12.6566C15.1399 12.3426 14.5329 11.9681 13.8735 11.7589C9.48978 10.3684 6.32389 14.011 6.75374 17.7878C6.99168 19.8784 8.47768 21.1754 10.5925 21.2441C11.6959 21.2799 12.7218 20.9864 13.7146 20.5411C14.0143 20.4067 14.3091 20.2616 14.6636 20.0943C14.8877 20.9706 15.108 21.789 15.2954 22.6148C15.3212 22.7285 15.2202 22.9478 15.1167 23.0029C12.5426 24.3704 9.87203 24.7986 7.14897 23.5343C4.28292 22.2037 3.08154 19.3698 3.424 16.3848C3.66066 14.3219 4.52239 12.5476 5.98786 11.0238Z" fill="#FD8135"/>
<path d="M9.89292 0.723222C10.3398 0.944349 10.204 1.26546 10.0785 1.54902C9.77864 2.22655 9.49175 2.91489 9.12661 3.55737C8.4554 4.73837 8.58522 5.86143 9.24582 6.98138C9.31147 7.09269 9.36648 7.21028 9.46451 7.39776C7.68775 7.97836 6.12581 8.89262 4.85906 10.278C4.7921 10.2511 4.72515 10.2243 4.6582 10.1975C4.80711 8.7715 4.92285 7.34107 5.11492 5.92096C5.28279 4.6798 5.67387 3.49725 6.39075 2.45261C7.21897 1.24572 8.35396 0.618424 9.89292 0.723222Z" fill="#FC8135"/>
<path d="M20.8803 17.1707C20.5329 17.1706 20.2393 17.1706 19.8877 17.1706C19.8877 17.8222 19.8877 18.4262 19.8877 19.0685C19.2831 19.0685 18.7359 19.0685 18.1138 19.0685C18.1138 18.4627 18.1138 17.8447 18.1138 17.1741C17.4729 17.1741 16.9048 17.1741 16.2939 17.1741C16.2939 16.5779 16.2939 16.0353 16.2939 15.4508C16.8872 15.4508 17.4569 15.4508 18.0802 15.4508C18.0802 14.8082 18.0802 14.2051 18.0802 13.5615C18.6941 13.5615 19.2541 13.5615 19.8738 13.5615C19.8738 14.1848 19.8738 14.7881 19.8738 15.4277C20.4826 15.4277 21.034 15.4277 21.6321 15.4277C21.6321 16.009 21.6321 16.5536 21.6321 17.1707C21.4057 17.1707 21.1699 17.1707 20.8803 17.1707Z" fill="#FC8135"/>
<path d="M13.637 14.651C13.637 14.9256 13.637 15.1461 13.637 15.4296C14.2488 15.4296 14.8315 15.4296 15.4502 15.4296C15.4502 16.0221 15.4502 16.5521 15.4502 17.154C14.86 17.154 14.2782 17.154 13.6452 17.154C13.6452 17.8292 13.6452 18.4343 13.6452 19.0732C13.0462 19.0732 12.4986 19.0732 11.8728 19.0732C11.8728 18.4565 11.8728 17.8379 11.8728 17.1763C11.2452 17.1763 10.6943 17.1763 10.1016 17.1763C10.1016 16.589 10.1016 16.0475 10.1016 15.4472C10.6759 15.4472 11.2421 15.4472 11.8642 15.4472C11.8642 14.7888 11.8642 14.1855 11.8642 13.5527C12.4702 13.5527 13.0182 13.5527 13.637 13.5527C13.637 13.9039 13.637 14.2504 13.637 14.651Z" fill="#FD8135"/>
<path d="M10.8446 7.16246C10.5784 7.20097 10.3602 7.2322 10.0557 7.27581C10.4282 5.45214 10.8144 3.68744 12.361 2.47953C12.9755 1.9996 13.7078 1.87263 14.4741 2.01253C14.9573 2.10074 15.0438 2.28645 14.7861 2.70128C14.5316 3.11097 14.2785 3.52932 13.9666 3.89404C13.2046 4.78494 13.2662 5.71499 13.7519 6.68925C13.8169 6.81968 13.8815 6.95028 13.9833 7.15519C12.9121 7.15519 11.9024 7.15519 10.8446 7.16246Z" fill="#FB8035"/>
</svg>

<svg xmlns="http://www.w3.org/2000/svg" width="25" height="25" fill="none" viewBox="0 0 25 25"><path fill="#fd8135" d="M5.988 11.024c1.864-1.784 4.05-2.673 6.592-2.58 1.7.063 3.282.56 4.722 1.627l-1.497 2.586c-.665-.314-1.272-.689-1.931-.898-4.384-1.39-7.55 2.252-7.12 6.029.238 2.09 1.724 3.387 3.839 3.456 1.103.036 2.129-.258 3.122-.703.3-.134.594-.28.949-.447.224.877.444 1.695.631 2.52.026.114-.075.334-.178.389-2.574 1.367-5.245 1.796-7.968.531-2.866-1.33-4.067-4.164-3.725-7.15.237-2.062 1.098-3.836 2.564-5.36"/><path fill="#fc8135" d="M9.893.723c.447.221.311.542.185.826-.3.678-.586 1.366-.951 2.008-.672 1.181-.542 2.304.119 3.424.065.112.12.23.219.417-1.777.58-3.34 1.495-4.606 2.88l-.2-.08c.148-1.427.264-2.857.456-4.277.168-1.241.559-2.424 1.276-3.468C7.219 1.246 8.354.618 9.893.723M20.88 17.17h-.992v1.898h-1.774v-1.894h-1.82v-1.723h1.786v-1.89h1.794v1.867h1.758v1.743z"/><path fill="#fd8135" d="M13.637 14.651v.779h1.813v1.724h-1.805v1.92h-1.772v-1.898h-1.771v-1.729h1.762v-1.894h1.773z"/><path fill="#fb8035" d="m10.845 7.162-.79.114c.373-1.824.76-3.589 2.306-4.796.614-.48 1.347-.607 2.113-.467.483.088.57.273.312.688-.254.41-.508.828-.82 1.193-.761.89-.7 1.821-.214 2.795l.231.466c-1.07 0-2.08 0-3.138.007"/></svg>
